X:480
T:Apley House. (p)1702.PLFD.480
M:4/4
L:1/8
Q:1/2=100
S:Playford, Dancing Master,Supp.to 11th Ed.,1702.
O:England
Z:Chris Partington.
K:G
B2G2Bcd2|e2c2A2c2|B2G2g2G2|B4d4:|
|:d2a2bagf|e2g2g2fe|f2a2bagf|e4d4:|
|:e2c2cdec|d2B2BcdB|g2G2G2A2|B4d4:|
